source/img/sprite/detective.svg

<svg width="" height="" viewBox="0 0 35 35" fill="" xmlns="http://www.w3.org/2000/svg">
<path d="M17.5 11.0172C17.1227 11.0172 16.8164 11.3751 16.8164 11.8166C16.8164 12.2579 17.1227 12.6161 17.5 12.6161C17.8773 12.6161 18.1836 12.2579 18.1836 11.8166C18.1836 11.3751 17.8773 11.0172 17.5 11.0172Z" fill=""/>
<path d="M32.9492 15.8139H30.2893C28.8872 11.1316 26.8527 2.92165 23.1672 0.598015C21.3239 -0.562708 19.5815 0.247956 18.9262 1.89489C18.6474 2.59501 18.0907 2.96318 17.5 2.96318C16.9013 2.96318 16.3491 2.58689 16.0738 1.89551C15.4417 0.30479 13.741 -0.580195 11.9624 0.429387C8.21781 2.55597 6.12377 11.0964 4.71066 15.8139H2.05078C0.917778 15.8139 0 16.8869 0 18.2121C0 19.5343 0.919914 20.6104 2.05078 20.6104H32.9492C34.0822 20.6104 35 19.5371 35 18.2121C35 16.8897 34.0801 15.8139 32.9492 15.8139ZM7.11205 12.6162H14.7656C15.1432 12.6162 15.4492 12.258 15.4492 11.8168C15.4492 11.3752 15.1432 11.0174 14.7656 11.0174H7.59003C9.65069 4.3606 11.5757 2.42638 12.5594 1.86772C13.6326 1.25879 14.516 1.76842 14.8343 2.56971C15.3357 3.82943 16.3731 4.56202 17.5 4.56202C18.6295 4.56202 19.6656 3.82662 20.1657 2.56971C20.4934 1.74562 21.3813 1.28939 22.5185 2.00543C23.5068 2.62873 25.4259 4.62729 27.4097 11.0174H20.2344C19.8568 11.0174 19.5508 11.3752 19.5508 11.8168C19.5508 12.2583 19.8568 12.6162 20.2344 12.6162H27.8882C28.2338 13.7816 28.5926 14.9842 28.841 15.8139H6.15929C6.40682 14.9864 6.76491 13.7866 7.11205 12.6162ZM32.9492 19.0116H2.05078C1.67374 19.0116 1.36719 18.6528 1.36719 18.2121C1.36719 17.7706 1.6732 17.4127 2.05078 17.4127H32.9492C33.3263 17.4127 33.6328 17.7712 33.6328 18.2121C33.6328 18.6534 33.3265 19.0116 32.9492 19.0116Z" fill=""/>
<path d="M16.1328 23.8081H5.19532C4.81774 23.8081 4.51173 24.1659 4.51173 24.6075V27.8052C4.51173 31.7723 7.27174 35 10.6641 35C13.2345 35 15.5096 33.151 16.4145 30.3655C17.1019 29.9989 17.8981 29.9989 18.5855 30.3655C19.4904 33.151 21.7655 34.9996 24.3359 34.9996C27.7283 34.9996 30.4883 31.7723 30.4883 27.8048V24.6072C30.4883 24.1656 30.1823 23.8077 29.8047 23.8077H18.8672C18.4896 23.8077 18.1836 24.1656 18.1836 24.6072V25.4066H16.8164V24.6072C16.8164 24.1659 16.5104 23.8081 16.1328 23.8081ZM10.6641 33.4011C8.02556 33.4011 5.87891 30.8907 5.87891 27.8052V25.4069H15.4492V27.8052C15.4492 30.8989 13.3141 33.4011 10.6641 33.4011ZM19.5508 25.4069H29.1211V27.8052C29.1211 30.8907 26.9745 33.4011 24.3359 33.4011C21.6793 33.4011 19.5508 30.8914 19.5508 27.8052V25.4069ZM18.1836 27.0057V27.8052C18.1836 28.0606 18.1961 28.3151 18.2188 28.5677C17.7438 28.4662 17.2562 28.4662 16.7812 28.5677C16.8039 28.3151 16.8164 28.0606 16.8164 27.8052V27.0057H18.1836Z" fill=""/>
<path d="M10.6641 30.2033C9.53321 30.2033 8.6133 29.1272 8.6133 27.805C8.6133 27.3635 8.30728 27.0056 7.9297 27.0056C7.55212 27.0056 7.24611 27.3635 7.24611 27.805C7.24611 30.0088 8.77939 31.8021 10.6641 31.8021C11.0417 31.8021 11.3477 31.444 11.3477 31.0027C11.3477 30.5612 11.0417 30.2033 10.6641 30.2033Z" fill=""/>
<path d="M24.336 31.8021C26.2206 31.8021 27.7539 30.0088 27.7539 27.805C27.7539 27.3635 27.4479 27.0056 27.0703 27.0056C26.6927 27.0056 26.3867 27.3635 26.3867 27.805C26.3867 29.1272 25.4668 30.2033 24.336 30.2033C23.9584 30.2033 23.6524 30.5612 23.6524 31.0027C23.6524 31.444 23.9584 31.8021 24.336 31.8021Z" fill=""/>
</svg>

<svg xmlns="http://www.w3.org/2000/svg" viewBox="0 0 35 35"><path d="M17.5 11.02c-.38 0-.68.36-.68.8 0 .44.3.8.68.8.38 0 .68-.36.68-.8 0-.44-.3-.8-.68-.8Z"/><path d="M32.95 15.81h-2.66C28.89 11.13 26.85 2.92 23.17.6c-1.85-1.16-3.59-.35-4.24 1.3-.28.7-.84 1.06-1.43 1.06-.6 0-1.15-.37-1.43-1.06-.63-1.6-2.33-2.48-4.1-1.47C8.21 2.56 6.11 11.1 4.7 15.8H2.05C.92 15.81 0 16.9 0 18.21c0 1.32.92 2.4 2.05 2.4h30.9c1.13 0 2.05-1.07 2.05-2.4 0-1.32-.92-2.4-2.05-2.4ZM7.1 12.61h7.66c.37 0 .68-.35.68-.8 0-.43-.3-.8-.68-.8H7.59c2.06-6.65 3.99-8.58 4.97-9.14 1.07-.61 1.96-.1 2.27.7.5 1.26 1.54 2 2.67 2s2.17-.74 2.67-2c.32-.82 1.21-1.28 2.35-.56.99.62 2.9 2.62 4.89 9h-7.18c-.37 0-.68.37-.68.8 0 .45.3.8.68.8h7.66l.95 3.2H6.16l.95-3.2Zm25.84 6.4H2.05c-.38 0-.68-.36-.68-.8 0-.44.3-.8.68-.8h30.9c.38 0 .68.36.68.8 0 .44-.3.8-.68.8ZM16.13 23.8H5.2c-.38 0-.69.37-.69.8v3.2c0 3.97 2.76 7.2 6.15 7.2 2.57 0 4.85-1.85 5.75-4.63a2.28 2.28 0 0 1 2.18 0c.9 2.78 3.18 4.63 5.75 4.63 3.39 0 6.15-3.23 6.15-7.2v-3.2c0-.43-.3-.8-.69-.8H18.87c-.38 0-.69.37-.69.8v.8h-1.36v-.8c0-.43-.31-.8-.69-.8Zm-5.47 9.6c-2.63 0-4.78-2.5-4.78-5.6v-2.4h9.57v2.4c0 3.1-2.14 5.6-4.79 5.6Zm8.9-8h9.56v2.4c0 3.1-2.15 5.6-4.78 5.6-2.66 0-4.79-2.5-4.79-5.6v-2.4ZM18.17 27v.8c0 .26.02.52.04.77-.48-.1-.96-.1-1.44 0 .02-.25.04-.5.04-.76V27h1.36Z"/><path d="M10.66 30.2c-1.13 0-2.05-1.07-2.05-2.4 0-.44-.3-.8-.68-.8-.38 0-.68.36-.68.8 0 2.2 1.53 4 3.41 4 .38 0 .69-.36.69-.8 0-.44-.3-.8-.69-.8ZM24.34 31.8c1.88 0 3.41-1.8 3.41-4 0-.44-.3-.8-.68-.8-.38 0-.68.36-.68.8 0 1.33-.92 2.4-2.05 2.4-.38 0-.69.36-.69.8 0 .44.3.8.69.8Z"/></svg>
